threads.svg

<svg viewBox="0 0 24 24" version="1.1" xmlns="http://www.w3.org/2000/svg" xmlns:xlink="http://www.w3.org/1999/xlink">
    <title>Threads</title>
        <path d="M10.687836,0 C14.2643476,0.0243935 17.040125,1.200835 18.938063,3.49675 C19.8745096,4.6294625 20.5626695,5.995275 21,7.580275 L18.9472164,8.1187875 C18.5864188,6.8311 18.03912,5.7267 17.3132022,4.8485 C15.8327623,3.057675 13.6014868,2.1389125 10.6806785,2.1175625 C7.78091038,2.13875 5.58788866,3.0531125 4.16202598,4.8353375 C2.82682039,6.5042 2.13677899,8.914725 2.11103497,12 C2.13677899,15.08525 2.82682039,17.49575 4.16202598,19.164625 C5.58788866,20.946875 7.78094852,21.86125 10.6807167,21.882375 C13.294847,21.8635 15.0245908,21.252 16.4635861,19.8385 C18.1059909,18.225 18.0753523,16.245875 17.5500472,15.0415 C17.241119,14.333 16.6817428,13.743625 15.9269663,13.29575 C15.7431349,14.642875 15.326781,15.712 14.6684969,16.537 C13.8017181,17.623375 12.5592672,18.2175 10.9755079,18.302875 C9.77624346,18.36725 8.62232662,18.082875 7.72638391,17.501375 C6.66670925,16.8135 6.04653901,15.7605 5.98018936,14.5365 C5.84943518,12.1234875 7.7962678,10.386925 10.8245653,10.2154125 C11.8995847,10.1548125 12.9051906,10.2025875 13.8350264,10.357975 C13.7115822,9.615625 13.4622784,9.0274125 13.0895305,8.60175 C12.5773198,8.017075 11.7859296,7.7172625 10.7371755,7.7106875 L10.7080625,7.7106 C9.86602334,7.7106 8.72265837,7.9422875 7.99412171,9.0291 L6.24238425,7.8475875 C7.21761853,6.3926125 8.80208979,5.5930375 10.7072235,5.5930375 L10.7504353,5.593125 C13.935587,5.613125 15.832508,7.567275 16.0209161,10.9806375 C16.1291045,11.0263 16.2358945,11.0739875 16.3410318,11.1235375 C17.8271927,11.824525 18.9140353,12.885875 19.4840905,14.192625 C20.278659,16.014875 20.3512507,18.98325 17.9404664,21.351375 C16.0978303,23.1615 13.8610882,23.978375 10.687836,24 L10.673521,24 C7.10428129,23.97575 4.35958749,22.79475 2.51570552,20.490125 C0.874902533,18.43925 0.0285281867,15.5855 0,12.0084375 L0,11.9915625 C0.0285281867,8.4144625 0.874902533,5.5608 2.51570552,3.5099125 C4.35958749,1.205225 7.10428129,0.02430875 10.673521,0 Z M11.6796481,12.3085 C11.438735,12.3085 11.1934994,12.315425 10.9435853,12.3296 C8.76133161,12.45325 8.03762592,13.49125 8.08802063,14.4215 C8.15601027,15.676125 9.53488534,16.261875 10.8621325,16.188375 C12.1616016,16.11825 13.636575,15.616875 13.88804,12.529125 C13.2138645,12.3842125 12.4723097,12.3085 11.6796481,12.3085 Z" fill="#000000" fill-rule="nonzero"></path>
</svg>

<svg viewBox="0 0 24 24" xmlns="http://www.w3.org/2000/svg"><path d="M10.688 0c3.576.024 6.352 1.2 8.25 3.497.937 1.132 1.625 2.498 2.062 4.083l-2.053.539c-.36-1.288-.908-2.392-1.634-3.27-1.48-1.791-3.712-2.71-6.632-2.731-2.9.02-5.093.935-6.519 2.717C2.827 6.505 2.137 8.915 2.111 12c.026 3.085.716 5.496 2.051 7.165 1.426 1.782 3.619 2.696 6.519 2.717 2.614-.019 4.344-.63 5.783-2.044 1.642-1.613 1.611-3.592 1.086-4.797-.309-.708-.868-1.297-1.623-1.745-.184 1.347-.6 2.416-1.259 3.241-.866 1.086-2.109 1.68-3.692 1.766-1.2.064-2.354-.22-3.25-.802-1.06-.688-1.68-1.74-1.746-2.965-.13-2.413 1.816-4.15 4.845-4.32 1.075-.061 2.08-.013 3.01.142-.123-.742-.373-1.33-.745-1.756-.513-.585-1.304-.885-2.353-.891h-.029c-.842 0-1.985.231-2.714 1.318L6.242 7.848c.976-1.455 2.56-2.255 4.465-2.255h.043c3.186.02 5.083 1.974 5.27 5.388.11.045.216.093.321.143 1.486.7 2.573 1.762 3.143 3.069.795 1.822.867 4.79-1.544 7.158-1.842 1.81-4.079 2.627-7.252 2.649h-.014c-3.57-.024-6.314-1.205-8.158-3.51C.875 18.44.029 15.586 0 12.008v-.016C.029 8.414.875 5.56 2.516 3.51 4.36 1.205 7.104.024 10.674 0Zm.992 12.309c-.241 0-.487.006-.736.02-2.183.124-2.906 1.162-2.856 2.092.068 1.255 1.447 1.84 2.774 1.767 1.3-.07 2.775-.571 3.026-3.659a10.543 10.543 0 0 0-2.208-.22Z"/></svg>
